X:1
T:At the Feet of Jesus
T:Philip Paul Bliss, 1876
T:At the Feet of Jesus
T:Public Domain
T:Public Domain
C:Philip Paul Bliss, 1876
Z:Public Domain
%%score ( 1 2 ) ( 3 4 )
L:1/8
M:6/8
K:Bb
V:1 treble 
V:2 treble 
V:3 bass 
V:4 bass 
V:1
 [DF]2 [DB] [Fd]2 [DB] | [DF]3 [B,D]3 | F2 F [=EG]2 [_EA] | [DB]6 | [DF]2 [DB] [Fd]2 [DB] | %5
w: 1.~At the feet of|Je- sus,|List- ening to His|ing|wis- dom’s les- son|
w: 2.~At the feet of|Je- sus,|Pour- ing per- fume|ry|did her Sav- ior|
w: 3.~At the feet of|Je- sus,|In that morn- ing|ing|hearts, re- ceiv- ing|
 [DF]3 [B,D]3 | F2 F [=EG]2 [_EA] | [DB]6 | [Ec]2 [Ec] ([Ec][DB])[CA] | [DB]2 [Ec] [Fd]3 | %10
w: From her|lov- ing Lord; Ma-|by|heav’n- ly grace, * Chose|the meek dis-|
w: For the|grave pre- pare; And,|the|“good work” done, * She|her Lord’s ap-|
w: Re- sur-|rect- ion power, Haste|to|preach the word; * “Christ|is ris- en,|
 [Fc]2 [Fc] ([Ac][GB])[FA] | [=EB]2 [EG] F3 | [DF]2 [DB] [Fd]2 [DB] | [DF]3 [B,D]3 | %14
w: ci- ple’s place. * At|the feet of|sus Is the place|for me,|
w: prov- al won. * At|the feet of|sus Is the place|for me,|
w: praise the Lord!” * At|the feet of|sus, Ris- en now|for me,|
 [CF]2 F [Gc]2 [Gd] | [Ge]6 | [Fd]2 [Fd] [Ff]2 [_Ad] | [Gc]3 [Ge]3 | [Fd]2 [DB] [Fd]2 [Ec] | %19
w: There a hum- ble|er|Would I choose to|be. *||
w: There, in sweet- est|vice|Would I ev- er|be. *||
w: I shall sing His|es|Through e- ter- ni-|ty. *||
 [DB]6 |] %20
w: |
w: |
w: |
V:2
 x6 | x6 | F2 F x3 | x6 | x6 | x6 | F2 F x3 | x6 | x6 | x6 | x6 | x3 F3 | x6 | x6 | x2 F x3 | x6 | %16
w: ||word; Learn-||||ry, led|||||Je-|||learn-||
w: ||rare, Ma-||||from love|||||Je-|||ser-||
w: ||hour, Lov-||||with joy|||||Je-|||prais-||
 x6 | x6 | x6 | x6 |] %20
w: ||||
w: ||||
w: ||||
V:3
 [B,,B,]2 [B,,B,] [B,,B,]2 [B,,B,] | [B,,B,]3 [B,,F,]3 | [F,A,]2 [F,A,] [F,B,]2 [F,C] | [B,,B,]6 | %4
 [B,,B,]2 [B,,B,] [B,,B,]2 [B,,B,] | [B,,B,]3 [B,,F,]3 | [F,A,]2 [F,A,] [F,B,]2 [F,C] | [B,,B,]6 | %8
 [F,A,]2 [F,A,] (A,B,)[F,C] | [B,,B,]2 [B,,B,] [B,,B,]3 | [F,A,]2 [F,A,] [F,C]2 [F,C] | %11
 [C,C]2 [C,B,] [F,A,]3 | [B,,B,]2 [B,,B,] [B,,B,]2 [B,,B,] | [B,,B,]3 [B,,F,]3 | %14
 [F,A,]2 [F,A,] [E,G,]2 [D,=B,] | ([C,C]3 [F,A,]3) | [B,,B,]2 [B,,B,] [D,B,]2 [B,,B,] | %17
 [E,B,]3 [E,B,]3 | [F,B,]2 [F,B,] [F,A,]2 F, | [B,,F,]6 |] %20
V:4
 x6 | x6 | x6 | x6 | x6 | x6 | x6 | x6 | x3 F,2 x | x6 | x6 | x6 | x6 | x6 | x6 | x6 | x6 | x6 | %18
 x5 F, | x6 |] %20

